projects/flag-game/flags/Angola.svg

<svg viewBox="0 0 1000 667" xmlns="http://www.w3.org/2000/svg" xmlns:xlink="http://www.w3.org/1999/xlink"><clipPath id="a"><path d="m0 0h1000v666.71875h-1000zm0 0"/></clipPath><clipPath id="b"><path d="m0 333h1000v333.71875h-1000zm0 0"/></clipPath><g clip-path="url(#a)"><path d="m0 666.667969v-666.667969h1000v666.667969zm0 0" fill="#ce1126" fill-rule="evenodd"/></g><g clip-path="url(#b)"><path d="m0 333.332031h1000v333.335938h-1000zm0 0" fill-rule="evenodd"/></g><g fill-rule="evenodd"><path d="m442.945312 254.796875h43.589844l13.464844-41.460937 13.464844 41.460937h43.589844l-35.253907 25.617187 13.464844 41.449219-35.265625-25.617187-35.265625 25.617187 13.464844-41.449219zm0 0" fill="#f9d616"/><path d="m672.496094 316.339844c1.113281 11.308594 1.113281 22.679687 0 33.984375l-33.175782-3.265625c.902344-9.125.902344-18.324219 0-27.449219zm-6.621094 67.308594c-3.300781 10.859374-7.660156 21.386718-13.011719 31.390624l-29.394531-15.710937c4.320312-8.082031 7.835938-16.582031 10.503906-25.359375zm-31.890625 59.644531c-7.191406 8.777343-15.246094 16.832031-24.023437 24.023437l-21.148438-25.757812c7.085938-5.816406 13.597656-12.316406 19.414062-19.410156zm-52.277344 42.902343c-10.015625 5.351563-20.53125 9.714844-31.394531 13.011719l-9.675781-31.902343c8.777343-2.65625 17.273437-6.183594 25.359375-10.5zm-64.714843 19.644532c-11.304688 1.105468-22.679688 1.105468-33.984376 0l3.265626-33.183594c9.125.898438 18.328124.898438 27.453124 0zm-67.304688-6.632813c-10.863281-3.296875-21.378906-7.660156-31.394531-13.011719l15.710937-29.390624c8.085938 4.316406 16.582032 7.84375 25.359375 10.5zm100.625-331.738281c10.863281 3.289062 21.378906 7.652344 31.394531 13l-15.710937 29.394531c-8.085938-4.320312-16.582032-7.835937-25.359375-10.503906zm59.648438 31.882812c8.777343 7.191407 16.832031 15.242188 24.023437 24.019532l-25.757813 21.148437c-5.816406-7.082031-12.328124-13.582031-19.414062-19.410156zm42.902343 52.277344c5.351563 10.011719 9.710938 20.53125 13.011719 31.390625l-31.902344 9.675781c-2.667968-8.777343-6.183594-17.273437-10.503906-25.355468zm0 0" fill="#f9d616"/><path d="m623.523438 499.707031 16.210937-19.011719c8.53125 8.257813 20.011719 16.394532 28.34375 23.785157 8.320313 7.390625 14.714844 13.542969 19.878906 21.941406 7.574219 12.304687-.933593 26.246094-12.730469 18.066406-6.367187-4.425781-10.371093-16.375-20.136718-26.261719-7.238282-6.148437-12.933594-12.605468-31.121094-15.722656-.878906-.148437-1.128906-1.992187-.445312-2.796875zm0 0" fill="#f9d616"/><path d="m647.570312 493.988281c0 .804688-.421874 1.542969-1.117187 1.941407-.695313.402343-1.554687.402343-2.238281 0-.691406-.398438-1.125-1.136719-1.113282-1.941407-.011718-.792969.421876-1.542969 1.113282-1.929687.683594-.402344 1.542968-.402344 2.238281 0 .695313.386718 1.117187 1.136718 1.117187 1.929687zm0 0"/><path d="m516.667969 175.0625-3.171875 29.667969c65.335937 6.859375 116.507812 61.535156 116.507812 128.667969 0 71.765624-58.25 130-130.003906 130-31.285156 0-59.558594-11.566407-82-30l-18.996094 23.164062c27.613282 22.679688 62.511719 36.839844 100.996094 36.839844 88.324219 0 160.003906-71.679688 160.003906-160.003906 0-82.59375-62.964844-149.871094-143.335937-158.335938zm0 0" fill="#f9d616"/><path d="m514.140625 439.660156 44.984375 26.605469 9.789062 37.945313 51.636719-3.90625 22.699219-26.609376-84.125-58.296874zm0 0"/><path d="m621.472656 497.089844c-57.855468-38.472656-94.652344-59.253906-150.097656-90.777344-21.777344-12.390625-55.597656-43.519531-28.917969-95.605469 1.683594 34.191407 136.816407 128.050781 193.925781 168.863281zm0 0" fill="#f9d616"/></g><path d="m480.1875 372.265625c44.550781 41.980469 100.652344 76.226563 150.691406 114.074219" fill="none" stroke="#000" stroke-width="3.333333"/><path d="m664.054688 508.367188c.007812.792968-.425782 1.527343-1.121094 1.929687-.683594.402344-1.539063.402344-2.234375 0-.695313-.402344-1.117188-1.136719-1.117188-1.929687 0-.804688.421875-1.542969 1.117188-1.945313.695312-.398437 1.550781-.398437 2.234375 0 .695312.402344 1.128906 1.140625 1.121094 1.945313zm0 0" fill-rule="evenodd"/><path d="m678.535156 523.082031c.011719.800781-.421875 1.539063-1.117187 1.941407-.683594.398437-1.539063.398437-2.234375 0-.695313-.402344-1.117188-1.140626-1.117188-1.941407 0-.796875.421875-1.542969 1.117188-1.945312.695312-.390625 1.550781-.390625 2.234375 0 .695312.402343 1.128906 1.148437 1.117187 1.945312zm0 0" fill-rule="evenodd"/></svg>

<?xml version="1.0" encoding="UTF-8"?>
<svg xmlns="http://www.w3.org/2000/svg" xmlns:xlink="http://www.w3.org/1999/xlink" viewBox="0 0 1000 667" version="1.1">
<defs>
<clipPath id="clip1">
  <path d="M 0 0 L 1000 0 L 1000 666.71875 L 0 666.71875 Z M 0 0 "/>
</clipPath>
<clipPath id="clip2">
  <path d="M 0 333 L 1000 333 L 1000 666.71875 L 0 666.71875 Z M 0 333 "/>
</clipPath>
</defs>
<g id="surface99">
<g clip-path="url(#clip1)" clip-rule="nonzero">
<path style=" stroke:none;fill-rule:evenodd;fill:rgb(80.783081%,6.666565%,14.901733%);fill-opacity:1;" d="M 0 666.667969 L 0 0 L 1000 0 L 1000 666.667969 Z M 0 666.667969 "/>
</g>
<g clip-path="url(#clip2)" clip-rule="nonzero">
<path style=" stroke:none;fill-rule:evenodd;fill:rgb(0%,0%,0%);fill-opacity:1;" d="M 0 333.332031 L 1000 333.332031 L 1000 666.667969 L 0 666.667969 Z M 0 333.332031 "/>
</g>
<path style=" stroke:none;fill-rule:evenodd;fill:rgb(97.645569%,83.920288%,8.627319%);fill-opacity:1;" d="M 442.945312 254.796875 L 486.535156 254.796875 L 500 213.335938 L 513.464844 254.796875 L 557.054688 254.796875 L 521.800781 280.414062 L 535.265625 321.863281 L 500 296.246094 L 464.734375 321.863281 L 478.199219 280.414062 Z M 442.945312 254.796875 "/>
<path style=" stroke:none;fill-rule:evenodd;fill:rgb(97.645569%,83.920288%,8.627319%);fill-opacity:1;" d="M 672.496094 316.339844 C 673.609375 327.648438 673.609375 339.019531 672.496094 350.324219 L 639.320312 347.058594 C 640.222656 337.933594 640.222656 328.734375 639.320312 319.609375 Z M 665.875 383.648438 C 662.574219 394.507812 658.214844 405.035156 652.863281 415.039062 L 623.46875 399.328125 C 627.789062 391.246094 631.304688 382.746094 633.972656 373.96875 Z M 633.984375 443.292969 C 626.792969 452.070312 618.738281 460.125 609.960938 467.316406 L 588.8125 441.558594 C 595.898438 435.742188 602.410156 429.242188 608.226562 422.148438 Z M 581.707031 486.195312 C 571.691406 491.546875 561.175781 495.910156 550.3125 499.207031 L 540.636719 467.304688 C 549.414062 464.648438 557.910156 461.121094 565.996094 456.804688 Z M 516.992188 505.839844 C 505.6875 506.945312 494.3125 506.945312 483.007812 505.839844 L 486.273438 472.65625 C 495.398438 473.554688 504.601562 473.554688 513.726562 472.65625 Z M 449.6875 499.207031 C 438.824219 495.910156 428.308594 491.546875 418.292969 486.195312 L 434.003906 456.804688 C 442.089844 461.121094 450.585938 464.648438 459.363281 467.304688 Z M 550.3125 167.46875 C 561.175781 170.757812 571.691406 175.121094 581.707031 180.46875 L 565.996094 209.863281 C 557.910156 205.542969 549.414062 202.027344 540.636719 199.359375 Z M 609.960938 199.351562 C 618.738281 206.542969 626.792969 214.59375 633.984375 223.371094 L 608.226562 244.519531 C 602.410156 237.4375 595.898438 230.9375 588.8125 225.109375 Z M 652.863281 251.628906 C 658.214844 261.640625 662.574219 272.160156 665.875 283.019531 L 633.972656 292.695312 C 631.304688 283.917969 627.789062 275.421875 623.46875 267.339844 Z M 652.863281 251.628906 "/>
<path style=" stroke:none;fill-rule:evenodd;fill:rgb(97.645569%,83.920288%,8.627319%);fill-opacity:1;" d="M 623.523438 499.707031 L 639.734375 480.695312 C 648.265625 488.953125 659.746094 497.089844 668.078125 504.480469 C 676.398438 511.871094 682.792969 518.023438 687.957031 526.421875 C 695.53125 538.726562 687.023438 552.667969 675.226562 544.488281 C 668.859375 540.0625 664.855469 528.113281 655.089844 518.226562 C 647.851562 512.078125 642.15625 505.621094 623.96875 502.503906 C 623.089844 502.355469 622.839844 500.511719 623.523438 499.707031 Z M 623.523438 499.707031 "/>
<path style=" stroke:none;fill-rule:evenodd;fill:rgb(0%,0%,0%);fill-opacity:1;" d="M 647.570312 493.988281 C 647.570312 494.792969 647.148438 495.53125 646.453125 495.929688 C 645.757812 496.332031 644.898438 496.332031 644.214844 495.929688 C 643.523438 495.53125 643.089844 494.792969 643.101562 493.988281 C 643.089844 493.195312 643.523438 492.445312 644.214844 492.058594 C 644.898438 491.65625 645.757812 491.65625 646.453125 492.058594 C 647.148438 492.445312 647.570312 493.195312 647.570312 493.988281 Z M 647.570312 493.988281 "/>
<path style=" stroke:none;fill-rule:evenodd;fill:rgb(97.645569%,83.920288%,8.627319%);fill-opacity:1;" d="M 516.667969 175.0625 L 513.496094 204.730469 C 578.832031 211.589844 630.003906 266.265625 630.003906 333.398438 C 630.003906 405.164062 571.753906 463.398438 500 463.398438 C 468.714844 463.398438 440.441406 451.832031 418 433.398438 L 399.003906 456.5625 C 426.617188 479.242188 461.515625 493.402344 500 493.402344 C 588.324219 493.402344 660.003906 421.722656 660.003906 333.398438 C 660.003906 250.804688 597.039062 183.527344 516.667969 175.0625 Z M 516.667969 175.0625 "/>
<path style=" stroke:none;fill-rule:evenodd;fill:rgb(0%,0%,0%);fill-opacity:1;" d="M 514.140625 439.660156 L 559.125 466.265625 L 568.914062 504.210938 L 620.550781 500.304688 L 643.25 473.695312 L 559.125 415.398438 Z M 514.140625 439.660156 "/>
<path style=" stroke:none;fill-rule:evenodd;fill:rgb(97.645569%,83.920288%,8.627319%);fill-opacity:1;" d="M 621.472656 497.089844 C 563.617188 458.617188 526.820312 437.835938 471.375 406.3125 C 449.597656 393.921875 415.777344 362.792969 442.457031 310.707031 C 444.140625 344.898438 579.273438 438.757812 636.382812 479.570312 Z M 621.472656 497.089844 "/>
<path style="fill:none;stroke-width:3.333333;stroke-linecap:butt;stroke-linejoin:miter;stroke:rgb(0%,0%,0%);stroke-opacity:1;stroke-miterlimit:4;" d="M 480.1875 372.265625 C 524.738281 414.246094 580.839844 448.492188 630.878906 486.339844 "/>
<path style=" stroke:none;fill-rule:evenodd;fill:rgb(0%,0%,0%);fill-opacity:1;" d="M 664.054688 508.367188 C 664.0625 509.160156 663.628906 509.894531 662.933594 510.296875 C 662.25 510.699219 661.394531 510.699219 660.699219 510.296875 C 660.003906 509.894531 659.582031 509.160156 659.582031 508.367188 C 659.582031 507.5625 660.003906 506.824219 660.699219 506.421875 C 661.394531 506.023438 662.25 506.023438 662.933594 506.421875 C 663.628906 506.824219 664.0625 507.5625 664.054688 508.367188 Z M 664.054688 508.367188 "/>
<path style=" stroke:none;fill-rule:evenodd;fill:rgb(0%,0%,0%);fill-opacity:1;" d="M 678.535156 523.082031 C 678.546875 523.882812 678.113281 524.621094 677.417969 525.023438 C 676.734375 525.421875 675.878906 525.421875 675.183594 525.023438 C 674.488281 524.621094 674.066406 523.882812 674.066406 523.082031 C 674.066406 522.285156 674.488281 521.539062 675.183594 521.136719 C 675.878906 520.746094 676.734375 520.746094 677.417969 521.136719 C 678.113281 521.539062 678.546875 522.285156 678.535156 523.082031 Z M 678.535156 523.082031 "/>
</g>
</svg>
